americans/img/point-inner.svg

<svg width="545" height="79" viewBox="0 0 545 79" fill="none" xmlns="http://www.w3.org/2000/svg">
<path d="M16.7692 1.88095V0H528.231V1.88095H16.7692Z" fill="#FFF8DC"/>
<path d="M16.7692 77.119V79H528.231V77.119H16.7692Z" fill="#FFF8DC"/>
<path d="M0 7.52381H5.58974V72.4167H0V7.52381Z" fill="#FFF8DC"/>
<path d="M5.58974 4.70238H11.1795V7.52381H5.58974V4.70238Z" fill="#FFF8DC"/>
<path d="M11.1795 1.88095H16.7692V4.70238H11.1795V1.88095Z" fill="#FFF8DC"/>
<path d="M0 71.4762H5.58974V6.58333H0V71.4762Z" fill="#FFF8DC"/>
<path d="M5.58974 74.2976H11.1795V71.4762H5.58974V74.2976Z" fill="#FFF8DC"/>
<path d="M11.1795 77.119H16.7692V74.2976H11.1795V77.119Z" fill="#FFF8DC"/>
<path d="M545 7.52381H539.41V72.4167H545V7.52381Z" fill="#FFF8DC"/>
<path d="M539.41 4.70238H533.82V7.52381H539.41V4.70238Z" fill="#FFF8DC"/>
<path d="M533.82 1.88095H528.231V4.70238H533.82V1.88095Z" fill="#FFF8DC"/>
<path d="M545 71.4762H539.41V6.58333H545V71.4762Z" fill="#FFF8DC"/>
<path d="M539.41 74.2976H533.82V71.4762H539.41V74.2976Z" fill="#FFF8DC"/>
<path d="M533.82 77.119H528.231V74.2976H533.82V77.119Z" fill="#FFF8DC"/>
</svg>

<svg width="545" height="79" fill="none" xmlns="http://www.w3.org/2000/svg"><path d="M16.77 1.881V0H528.23v1.881H16.769ZM16.77 77.119V79H528.23v-1.881H16.769ZM0 7.524h5.59v64.893H0V7.524ZM5.59 4.702h5.59v2.822H5.59V4.702ZM11.18 1.881h5.59v2.821h-5.59V1.881Z" fill="#FFF8DC"/><path d="M0 71.476h5.59V6.583H0v64.893ZM5.59 74.298h5.59v-2.822H5.59v2.822ZM11.18 77.119h5.59v-2.821h-5.59v2.821ZM545 7.524h-5.59v64.893H545V7.524ZM539.41 4.702h-5.59v2.822h5.59V4.702ZM533.82 1.881h-5.589v2.821h5.589V1.881Z" fill="#FFF8DC"/><path d="M545 71.476h-5.59V6.583H545v64.893ZM539.41 74.298h-5.59v-2.822h5.59v2.822ZM533.82 77.119h-5.589v-2.821h5.589v2.821Z" fill="#FFF8DC"/></svg>
